X:1
T: Bergman's Valtz
I:
C: W-8
M: 3/4
Z:
R: waltz
K: Am
E2| "Am"A3 ^G A2| "E"B4 c2| "Am"A4 A2| A4 E2| A3 ^G A2| "E"B4 c2| "Am"A6-| A4:|
\
e2| "C"c4 e2| c4 e2| "Dm"f3 e f2| d4 d2| "G"B4 d2| B4 d2| "C"e3 d e4| c4 c2|
    "Am"A4 c2| A4 d2| "Dm"B4 d2| B4 f2| "Am"e3 d c2| "E"d2 c2 B2| "Am"A6-| A4|]
%text 9/1/98
